X:1
T:Sheffield, CM
T:Sheffield, CM
T:William Mather (1756-1808)
T:Public Domain Courtesy of the Cyber Hymnal™
C:William Mather (1756-1808)
Z:Public Domain
Z:Courtesy of the Cyber Hymnal™
%%score ( 1 2 ) ( 3 4 )
L:1/8
Q:1/4=115
M:4/4
K:A
V:1 treble 
V:2 treble 
V:3 bass 
V:4 bass 
V:1
 [CE]2 | [EA]2 [Ec]2 [FB]2 [Dd]2 x | c2 z D [CA]2 GA | BG FA [EG]2 [^DF]2 | E6 [Ec][Fd] | %5
 [Ee]2 Bc [Dd]2 AB | [Ec]2 [EB][^DA] [EB]2 [Ec][=D^d] | [Ce][Ec] Bd [Ec]2 B2 | [CA]6 |] %9
V:2
 x2 | x9 | E3 (B2 x E2) | E2 E2 x4 | x8 | x2 E2 x E2 x | x8 | x2 F2 x ED x | x6 |] %9
V:3
 [A,,A,]2 | [C,A,]2 [A,,A,]2 F,3 z G, | A,2 [E,G,]2 [A,,A,]2 [E,B,][C,A,] | %3
 G,B, [A,,C]2 [B,,B,]2 B,A, | [E,G,]6 A,2 | A,2 [E,G,][C,A,] F,G, [C,A,][B,,G,] | %6
 A,2 [G,B,] F, G,2 [C,A,][B,,G,] | [A,,A,]2 [D,A,]2 [E,A,]2 [E,G,]2 | [A,,A,]6 |] %9
V:4
 x2 | x4 D,2 B,,2 x | C,D, x6 | G,,2 x3 B,,2 x | x6 A,F, | C,D, x B,,2 x3 | A,,A,F, E, D, x3 | x8 | %8
 x6 |] %9

